app/img/header/burger-close.svg

<svg width="43" height="43" viewBox="0 0 43 43" fill="none" xmlns="http://www.w3.org/2000/svg">
<rect width="43" height="43" rx="21.5" fill="url(#paint0_linear_1_2119)"/>
<g clip-path="url(#clip0_1_2119)">
<path d="M22.8742 21.5122L28.715 15.6713C29.0951 15.2914 29.0951 14.6771 28.715 14.2972C28.335 13.9172 27.7207 13.9172 27.3408 14.2972L21.4999 20.138L15.6592 14.2972C15.2791 13.9172 14.665 13.9172 14.2851 14.2972C13.905 14.6771 13.905 15.2914 14.2851 15.6713L20.1258 21.5122L14.2851 27.353C13.905 27.733 13.905 28.3473 14.2851 28.7272C14.4744 28.9167 14.7234 29.0119 14.9721 29.0119C15.2209 29.0119 15.4697 28.9167 15.6592 28.7272L21.4999 22.8863L27.3408 28.7272C27.5303 28.9167 27.7791 29.0119 28.0279 29.0119C28.2767 29.0119 28.5254 28.9167 28.715 28.7272C29.0951 28.3473 29.0951 27.733 28.715 27.353L22.8742 21.5122Z" fill="white"/>
</g>
<defs>
<linearGradient id="paint0_linear_1_2119" x1="43" y1="43" x2="-1.97715" y2="40.8216" gradientUnits="userSpaceOnUse">
<stop stop-color="#864FF1"/>
<stop offset="1" stop-color="#49B3F7"/>
</linearGradient>
<clipPath id="clip0_1_2119">
<rect width="15" height="15" fill="white" transform="translate(14 14)"/>
</clipPath>
</defs>
</svg>

<svg width="43" height="43" fill="none" xmlns="http://www.w3.org/2000/svg"><rect width="43" height="43" rx="21.5" fill="url(#paint0_linear_1_2119)"/><g clip-path="url(#clip0_1_2119)"><path d="M22.874 21.512l5.841-5.84a.97.97 0 10-1.374-1.375L21.5 20.138l-5.84-5.84a.97.97 0 10-1.375 1.373l5.84 5.841-5.84 5.841a.97.97 0 101.374 1.374l5.84-5.84 5.842 5.84a.97.97 0 001.374 0 .97.97 0 000-1.374l-5.84-5.84z" fill="#fff"/></g><defs><linearGradient id="paint0_linear_1_2119" x1="43" y1="43" x2="-1.977" y2="40.822" gradientUnits="userSpaceOnUse"><stop stop-color="#864FF1"/><stop offset="1" stop-color="#49B3F7"/></linearGradient><clipPath id="clip0_1_2119"><path fill="#fff" transform="translate(14 14)" d="M0 0h15v15H0z"/></clipPath></defs></svg>
